resources/dark/notifications-on.svg

<svg fill="none" height="16" viewBox="0 0 16 16" width="16" xmlns="http://www.w3.org/2000/svg" xmlns:xlink="http://www.w3.org/1999/xlink"><linearGradient id="a" gradientUnits="userSpaceOnUse" x1="8" x2="8" y1="2" y2="14"><stop offset="0" stop-color="#6f78f5"/><stop offset="1" stop-color="#926df7"/></linearGradient><path d="m12.4956 9.75638c-.3792-.3934-.7711-.80022-.7711-2.72069 0-1.94592-1.3607-3.56424-3.13543-3.86161.08174-.12475.12542-.27266.12522-.42408 0-.41421-.3198-.75-.71428-.75-.39449 0-.71429.33579-.71429.75-.0002.15143.04346.29934.1252.4241-1.77473.29738-3.1354 1.91569-3.1354 3.86161 0 1.92031-.39177 2.32716-.77105 2.72058-1.07357 1.11341-.28737 2.74371.98926 2.74371h2.0777c0 .8284.6396 1.5 1.42858 1.5.78897 0 1.42857-.6716 1.42857-1.5h2.07772c1.2765 0 2.0628-1.6309.9893-2.74362zm-4.49559 3.30612c-.29541 0-.53572-.2523-.53572-.5625h1.07143c0 .3102-.24031.5625-.53571.5625zm3.50649-1.6875h-7.01319c-.37415 0-.56105-.4779-.29764-.7545.63806-.66994 1.15128-1.30601 1.15128-3.58479 0-1.53605 1.19015-2.78571 2.65306-2.78571 1.4629 0 2.65309 1.24966 2.65309 2.78571 0 2.28867.5183 2.9197 1.151 3.58479.2646.2778.075.7545-.2976.7545z" fill="url(#a)"/></svg>

<svg width="16" height="16" viewBox="0 0 16 16" fill="none" xmlns="http://www.w3.org/2000/svg">
<path d="M12.4956 9.75638C12.1164 9.36298 11.7245 8.95616 11.7245 7.03569C11.7245 5.08977 10.3638 3.47145 8.58907 3.17408C8.67081 3.04933 8.71449 2.90142 8.71429 2.75C8.71429 2.33579 8.39449 2 8.00001 2C7.60552 2 7.28572 2.33579 7.28572 2.75C7.28552 2.90143 7.32918 3.04934 7.41092 3.1741C5.63619 3.47148 4.27552 5.08979 4.27552 7.03571C4.27552 8.95602 3.88375 9.36287 3.50447 9.75629C2.4309 10.8697 3.2171 12.5 4.49373 12.5H6.57143C6.57143 13.3284 7.21103 14 8.00001 14C8.78898 14 9.42858 13.3284 9.42858 12.5H11.5063C12.7828 12.5 13.5691 10.8691 12.4956 9.75638ZM8.00001 13.0625C7.7046 13.0625 7.46429 12.8102 7.46429 12.5H8.53572C8.53572 12.8102 8.29541 13.0625 8.00001 13.0625ZM11.5065 11.375H4.49331C4.11916 11.375 3.93226 10.8971 4.19567 10.6205C4.83373 9.95056 5.34695 9.31449 5.34695 7.03571C5.34695 5.49966 6.5371 4.25 8.00001 4.25C9.46291 4.25 10.6531 5.49966 10.6531 7.03571C10.6531 9.32438 11.1714 9.95541 11.8041 10.6205C12.0687 10.8983 11.8791 11.375 11.5065 11.375Z" fill="url(#paint0_linear)"/>
<defs>
<linearGradient id="paint0_linear" x1="8" y1="2" x2="8" y2="14" gradientUnits="userSpaceOnUse">
<stop stop-color="#6F78F5"/>
<stop offset="1" stop-color="#926DF7"/>
</linearGradient>
</defs>
</svg>
